icons/timer-flash-line.svg

<svg xmlns="http://www.w3.org/2000/svg" width="24" height="24" fill="none"><g clip-path="url(#a)"><g><path fill="#121212" d="M6.382 5.968C7.97575 4.69107 9.95781 3.99674 12 4C14.125 4 16.078 4.736 17.618 5.968L19.071 4.515L20.485 5.929L19.032 7.382C20.0897 8.70615 20.7521 10.302 20.9428 11.986C21.1336 13.6699 20.845 15.3735 20.1103 16.9007C19.3756 18.4279 18.2246 19.7167 16.7898 20.6186C15.355 21.5205 13.6947 21.999 12 21.999C10.3053 21.999 8.64498 21.5205 7.2102 20.6186C5.77541 19.7167 4.62443 18.4279 3.88973 16.9007C3.15502 15.3735 2.86644 13.6699 3.0572 11.986C3.24796 10.302 3.9103 8.70615 4.96801 7.382L3.51501 5.93L4.92901 4.516L6.382 5.969V5.968ZM12 20C12.9193 20 13.8295 19.8189 14.6788 19.4672C15.5281 19.1154 16.2997 18.5998 16.9498 17.9497C17.5998 17.2997 18.1154 16.5281 18.4672 15.6788C18.8189 14.8295 19 13.9193 19 13C19 12.0807 18.8189 11.1705 18.4672 10.3212C18.1154 9.47194 17.5998 8.70026 16.9498 8.05025C16.2997 7.40024 15.5281 6.88463 14.6788 6.53284C13.8295 6.18106 12.9193 6 12 6C10.1435 6 8.36301 6.7375 7.05026 8.05025C5.7375 9.36301 5.00001 11.1435 5.00001 13C5.00001 14.8565 5.7375 16.637 7.05026 17.9497C8.36301 19.2625 10.1435 20 12 20ZM13 12H16L11 18.5V14H8.00001L13 7.495V12ZM8.00001 1H16V3H8.00001V1Z"/></g></g><defs><clipPath id="a"><rect width="24" height="24" fill="white"/></clipPath></defs></svg>

<svg width="24" height="24" fill="none" xmlns="http://www.w3.org/2000/svg"><g clip-path="url(#a)"><path d="M6.382 5.968A8.962 8.962 0 0 1 12 4c2.125 0 4.078.736 5.618 1.968l1.453-1.453 1.414 1.414-1.453 1.453a9 9 0 1 1-14.064 0L3.515 5.93l1.414-1.414 1.453 1.453v-.001ZM12 20a7.001 7.001 0 0 0 4.95-11.95A7.001 7.001 0 1 0 12 20Zm1-8h3l-5 6.5V14H8l5-6.505V12ZM8 1h8v2H8V1Z" /></g><defs><clipPath id="a"><path fill="#fff" d="M0 0h24v24H0z"/></clipPath></defs></svg>
